public/images/linkedin.svg

<svg fill="none" height="20" viewBox="0 0 20 20" width="20" xmlns="http://www.w3.org/2000/svg" xmlns:xlink="http://www.w3.org/1999/xlink"><clipPath id="a"><path d="m0 0h20v20h-20z"/></clipPath><g clip-path="url(#a)"><path d="m13.4836 18.3332h-6.97408c-3.03167 0-4.84253-1.8134-4.84253-4.85v-6.97502c0-3.03166 1.81003-4.84166 4.84253-4.84166h6.98328c.6488-.03314 1.2978.06343 1.9089.28407.6112.22063 1.1722.56091 1.6502 1.00092.4381.47827.7765 1.03908.9953 1.64963.2188.61054.3135 1.25859.2789 1.90623v6.98333c-.0008 3.0325-1.8108 4.8425-4.8425 4.8425zm-1.4075-9.02503c.6284 0 1.2616.48667 1.2616 1.57333v3.6234h2.1517v-4.3709c.0393-.35144.0026-.70727-.1074-1.04337s-.2909-.64464-.5304-.90484c-.2395-.26021-.5321-.46599-.8579-.60344-.3259-.13745-.6774-.20338-1.0309-.19333-.4384-.01874-.8739.07672-1.2643.277-.3903.20028-.7219.49849-.9623.86548v-.92997h-2.14253v6.90247h2.14333v-3.6233c-.0215-.1923-.0033-.387.0533-.5721.0567-.1851.1506-.35656.2761-.50391.1255-.14734.2798-.26744.4535-.35283s.3629-.1343.5562-.14369zm-6.93987-1.70583v6.90256h2.15739v-6.90256zm1.0791-3.01916c-.28475.00155-.55728.11592-.75785.31805s-.31276.47554-.31209.76029c-.00067.28476.11152.55817.31209.7603s.4731.3165.75785.31804c.28468-.00154.55701-.11594.75745-.31809.20043-.20216.31257-.47557.31168-.76025.00089-.28467-.11125-.55808-.31168-.76024-.20044-.20216-.47277-.31655-.75745-.3181z" fill="#22a1d9"/></g></svg>

<svg width="20" height="20" viewBox="0 0 20 20" fill="none" xmlns="http://www.w3.org/2000/svg">
<g clip-path="url(#clip0_101_57)">
<path d="M13.4836 18.3332H6.50952C3.47785 18.3332 1.66699 16.5198 1.66699 13.4832V6.50818C1.66699 3.47652 3.47702 1.66652 6.50952 1.66652H13.4928C14.1416 1.63338 14.7906 1.72995 15.4017 1.95059C16.0129 2.17122 16.5739 2.5115 17.0519 2.95151C17.49 3.42978 17.8284 3.99059 18.0472 4.60114C18.266 5.21168 18.3607 5.85973 18.3261 6.50737V13.4907C18.3253 16.5232 16.5153 18.3332 13.4836 18.3332ZM12.0761 9.30817C12.7045 9.30817 13.3377 9.79484 13.3377 10.8815V14.5049H15.4894V10.134C15.5287 9.78256 15.492 9.42673 15.382 9.09063C15.272 8.75453 15.0911 8.44599 14.8516 8.18579C14.6121 7.92558 14.3195 7.7198 13.9937 7.58235C13.6678 7.4449 13.3163 7.37897 12.9628 7.38902C12.5244 7.37028 12.0889 7.46574 11.6985 7.66602C11.3082 7.8663 10.9766 8.16451 10.7362 8.5315V7.60153H8.59367V14.504H10.737V10.8807C10.7155 10.6884 10.7337 10.4937 10.7903 10.3086C10.847 10.1235 10.9409 9.95204 11.0664 9.80469C11.1919 9.65735 11.3462 9.53725 11.5199 9.45186C11.6936 9.36647 11.8828 9.31756 12.0761 9.30817ZM5.13623 7.60234V14.5049H7.29362V7.60234H5.13623ZM6.21533 4.58318C5.93058 4.58473 5.65805 4.6991 5.45748 4.90123C5.25691 5.10336 5.14472 5.37677 5.14539 5.66152C5.14472 5.94628 5.25691 6.21969 5.45748 6.42182C5.65805 6.62395 5.93058 6.73832 6.21533 6.73986C6.50001 6.73832 6.77234 6.62392 6.97278 6.42177C7.17321 6.21961 7.28535 5.9462 7.28446 5.66152C7.28535 5.37685 7.17321 5.10344 6.97278 4.90128C6.77234 4.69912 6.50001 4.58473 6.21533 4.58318Z" fill="#22A1D9"/>
</g>
<defs>
<clipPath id="clip0_101_57">
<rect width="20" height="20" fill="white"/>
</clipPath>
</defs>
</svg>
